!!!OTL: ALLES STILL IN SUESSER RUH
!!!ARE: Europa, Mitteleuropa, Deutschland
!!!SCT: B0622
!!!YEM: Copyright 1995, estate of Helmut Schaffrath.
**kern
*ICvox
*Ivox
*M2/4
*k[b-e-a-]
*E-:
=1
{8E-
8E-
8G
8G
=2
8B-
8B-
4G}
=3
{8A-
8A-
8F
8F
=4
8D
8D
4BB-}
=5
{8E-
8E-
8G
8G
=6
8B-
8B-
4e-}
=7
{8e-
8e-
8An
8An
=8
8c
8B-
4B-}
=9
{4A-
4G
=10
8F
8F
8F}
{16A-
16B-
=11
8c
8B-
8A-
8G
=12
4F
4r}
=13
{8G
8G
8B-
8B-
=14
8e-
8e-
4g}
=15
{4f
16e-
16d
16c
16B-
=16
4e-
4r}
==
!!!AGN: Kinder -, Wiegen - Lied
!!!ONB: ESAC (Essen Associative Code) Database: BOEHME
!!!AMT: simple duple
!!!AIN: vox
!!!EED: Helmut Schaffrath
!!!EEV: 1.0
*-
